animator-ulyanovsk/img/bg_header__circles.svg

<svg xmlns="http://www.w3.org/2000/svg" width="1177" height="1177" viewBox="0 0 1177 1177"><path fill-rule="evenodd" opacity=".149" fill="#FFF" d="M588.5 0C913.519 0 1177 263.481 1177 588.5S913.519 1177 588.5 1177C263.48 1177 0 913.519 0 588.5S263.48 0 588.5 0z"/><path fill-rule="evenodd" opacity=".149" fill="#FFF" d="M588.5 223C790.36 223 954 386.64 954 588.5S790.36 954 588.5 954 223 790.36 223 588.5 386.64 223 588.5 223z"/><path fill-rule="evenodd" opacity=".149" fill="#FFF" d="M589 398c105.486 0 191 85.514 191 191s-85.514 191-191 191-191-85.514-191-191 85.514-191 191-191z"/><path fill-rule="evenodd" opacity=".149" fill="#FFF" d="M589 459c71.797 0 130 58.203 130 130s-58.203 130-130 130-130-58.203-130-130 58.203-130 130-130z"/></svg>

<svg
 xmlns="http://www.w3.org/2000/svg"
 xmlns:xlink="http://www.w3.org/1999/xlink"
 width="1177px" height="1177px"
 viewBox="0 0 1177 1177"
 >
<path fill-rule="evenodd"  opacity="0.149" fill="rgb(255, 255, 255)"
 d="M588.500,0.000 C913.519,0.000 1177.000,263.481 1177.000,588.500 C1177.000,913.519 913.519,1177.000 588.500,1177.000 C263.480,1177.000 -0.000,913.519 -0.000,588.500 C-0.000,263.481 263.480,0.000 588.500,0.000 Z"/>
<path fill-rule="evenodd"  opacity="0.149" fill="rgb(255, 255, 255)"
 d="M588.500,223.000 C790.360,223.000 954.000,386.640 954.000,588.500 C954.000,790.360 790.360,954.000 588.500,954.000 C386.640,954.000 223.000,790.360 223.000,588.500 C223.000,386.640 386.640,223.000 588.500,223.000 Z"/>
<path fill-rule="evenodd"  opacity="0.149" fill="rgb(255, 255, 255)"
 d="M589.000,398.000 C694.486,398.000 780.000,483.514 780.000,589.000 C780.000,694.486 694.486,780.000 589.000,780.000 C483.514,780.000 398.000,694.486 398.000,589.000 C398.000,483.514 483.514,398.000 589.000,398.000 Z"/>
<path fill-rule="evenodd"  opacity="0.149" fill="rgb(255, 255, 255)"
 d="M589.000,459.000 C660.797,459.000 719.000,517.203 719.000,589.000 C719.000,660.797 660.797,719.000 589.000,719.000 C517.203,719.000 459.000,660.797 459.000,589.000 C459.000,517.203 517.203,459.000 589.000,459.000 Z"/>
</svg>
